apple-keyboard-command.svg

<svg fill="currentColor" viewBox="0 0 24 24"><path d="M6 2a4 4 0 0 1 4 4v2h4V6a4 4 0 0 1 4-4 4 4 0 0 1 4 4 4 4 0 0 1-4 4h-2v4h2a4 4 0 0 1 4 4 4 4 0 0 1-4 4 4 4 0 0 1-4-4v-2h-4v2a4 4 0 0 1-4 4 4 4 0 0 1-4-4 4 4 0 0 1 4-4h2v-4H6a4 4 0 0 1-4-4 4 4 0 0 1 4-4m10 16a2 2 0 0 0 2 2 2 2 0 0 0 2-2 2 2 0 0 0-2-2h-2zm-2-8h-4v4h4zm-8 6a2 2 0 0 0-2 2 2 2 0 0 0 2 2 2 2 0 0 0 2-2v-2zM8 6a2 2 0 0 0-2-2 2 2 0 0 0-2 2 2 2 0 0 0 2 2h2zm10 2a2 2 0 0 0 2-2 2 2 0 0 0-2-2 2 2 0 0 0-2 2v2z"/></svg>

<svg  viewBox="0 0 24 24" fill="currentColor"><path  d="M6,2A4,4 0 0,1 10,6V8H14V6A4,4 0 0,1 18,2A4,4 0 0,1 22,6A4,4 0 0,1 18,10H16V14H18A4,4 0 0,1 22,18A4,4 0 0,1 18,22A4,4 0 0,1 14,18V16H10V18A4,4 0 0,1 6,22A4,4 0 0,1 2,18A4,4 0 0,1 6,14H8V10H6A4,4 0 0,1 2,6A4,4 0 0,1 6,2M16,18A2,2 0 0,0 18,20A2,2 0 0,0 20,18A2,2 0 0,0 18,16H16V18M14,10H10V14H14V10M6,16A2,2 0 0,0 4,18A2,2 0 0,0 6,20A2,2 0 0,0 8,18V16H6M8,6A2,2 0 0,0 6,4A2,2 0 0,0 4,6A2,2 0 0,0 6,8H8V6M18,8A2,2 0 0,0 20,6A2,2 0 0,0 18,4A2,2 0 0,0 16,6V8H18Z"/></svg>
